X: 18341
T: Humours Of Whiskey, The
R: slip jig
M: 9/8
K: Bminor
|:"G"gfe "Bm"fBB fBB|"G"gfe "Bm"fBB "A"fga|"G"gfe "Bm"fBB "G"efg|"A"agf efd cBA:|
K:Dmaj
|:"D"d2e fdf "A"ecA|"D"d2e fed "G"gfe|"D"d2e fdf "G"efg|"A"agf efd cBA:|

